src/xmb/monochrome/netplay.svg

<?xml version="1.0" encoding="UTF-8" standalone="no"?>
<!-- Generator: Adobe Illustrator 16.0.0, SVG Export Plug-In . SVG Version: 6.00 Build 0)  -->

<svg
   xmlns:dc="http://purl.org/dc/elements/1.1/"
   xmlns:cc="http://creativecommons.org/ns#"
   xmlns:rdf="http://www.w3.org/1999/02/22-rdf-syntax-ns#"
   xmlns:svg="http://www.w3.org/2000/svg"
   xmlns="http://www.w3.org/2000/svg"
   xmlns:sodipodi="http://sodipodi.sourceforge.net/DTD/sodipodi-0.dtd"
   xmlns:inkscape="http://www.inkscape.org/namespaces/inkscape"
   version="1.1"
   id="svg2"
   inkscape:export-filename="/home/kivutar/libretro-super/retroarch/media/assets/xmb/monochrome/png/history.png"
   inkscape:export-xdpi="360"
   inkscape:version="0.92.1 r"
   inkscape:export-ydpi="360"
   sodipodi:docname="netplay.svg"
   x="0px"
   y="0px"
   width="64px"
   height="64px"
   viewBox="0 128 64 64"
   enable-background="new 0 128 64 64"
   xml:space="preserve"><metadata
     id="metadata8"><rdf:RDF><cc:Work
         rdf:about=""><dc:format>image/svg+xml</dc:format><dc:type
           rdf:resource="http://purl.org/dc/dcmitype/StillImage" /><dc:title /></cc:Work></rdf:RDF></metadata><defs
     id="defs6" /><sodipodi:namedview
     pagecolor="#808080"
     bordercolor="#666666"
     borderopacity="1"
     objecttolerance="10"
     gridtolerance="10"
     guidetolerance="10"
     inkscape:pageopacity="0"
     inkscape:pageshadow="2"
     inkscape:window-width="1440"
     inkscape:window-height="836"
     id="namedview4"
     showgrid="true"
     inkscape:zoom="7.375"
     inkscape:cx="18.87141"
     inkscape:cy="25.779874"
     inkscape:window-x="0"
     inkscape:window-y="27"
     inkscape:window-maximized="1"
     inkscape:current-layer="svg2"><inkscape:grid
       type="xygrid"
       id="grid2985"
       empspacing="4"
       visible="true"
       enabled="true"
       snapvisiblegridlinesonly="true" /></sodipodi:namedview><path
     style="fill:#ffffff"
     d="M 32 5 C 9.585 5 5 9.553 5 32 C 5 54.447 9.514 59 32 59 C 54.489 59 59 54.456 59 32 C 59 9.542 54.415 5 32 5 z M 32 12 C 40.134377 12 46.8703 18.1271 47.861328 26 L 48 26 A 4 4 0 0 1 52 30 L 52 34 A 4 4 0 0 1 48 38 L 38.783203 45.107422 C 38.918107 45.376997 39 45.676944 39 46 C 39 47.108 38.108 48 37 48 L 34 48 C 32.892 48 32 47.108 32 46 C 32 44.892 32.892 44 34 44 L 36.585938 44 L 44 36.585938 L 44 34 L 44 30 L 44 28 C 44 21.34889 38.651106 16 32 16 C 25.348894 16 20 21.34889 20 28 L 20 30 L 20 34 L 20 38 L 16 38 A 4 4 0 0 1 12 34 L 12 30 A 4 4 0 0 1 16 26 L 16.138672 26 C 17.1297 18.1271 23.865623 12 32 12 z "
     transform="translate(0,128)"
     id="Settings_1_" /></svg>

<svg xmlns="http://www.w3.org/2000/svg" xml:space="preserve" width="64" height="64" viewBox="0 128 64 64"><path d="M32 5C9.585 5 5 9.553 5 32s4.514 27 27 27c22.489 0 27-4.544 27-27C59 9.542 54.415 5 32 5m0 7c8.134 0 14.87 6.127 15.861 14H48a4 4 0 0 1 4 4v4a4 4 0 0 1-4 4l-9.217 7.107c.135.27.217.57.217.893 0 1.108-.892 2-2 2h-3c-1.108 0-2-.892-2-2s.892-2 2-2h2.586L44 36.586V28c0-6.651-5.349-12-12-12s-12 5.349-12 12v10h-4a4 4 0 0 1-4-4v-4a4 4 0 0 1 4-4h.139c.99-7.873 7.727-14 15.861-14" style="fill:#fff" transform="translate(0 128)"/></svg>
